X: 1
T: Vackert v\"ar
C: Birger Eriksson
R: march
Z: 2017 John Chambers <jc:trillian.mit.edu>
S: handwritten MS of unknown origin
M: 2/4
L: 1/16
K: D
"A"[|] (Ad) |\
"D"f3e (fg)af | d2A2 F2A2 | "G"B3A G2F2 | "Em"G6 B2 |\
"A7"A2AB (cB)cd | e2ge c2Ac | "D"e2d2 (de)fd |
A2G2 F2Ad ||\
"D"f3e (fg)af | d2A2 F2A2 | "G"G3A (BG)Bd | "Em"g6 B2 |\
"A7"A2(ge) (cA)(^GA) | g2(3(ege) c2(Ac) |
"D"e2d2 "A7"(de)dc | "D"d6 "B":: (dc) |\
"G"B2g2 (ga)gf | g2d2 c2B2 | "D"A2f2 (fg)fe | f2d2 A2ef ||
"A7"(ga)gf (ef)ed |\
[1,3 "A7"c2b2 a3a | (ba)^ga (ba)ga | "D"f2d2 A2 :|\
[2,4 "A7"c2b2 a2c | "D"e2d2 "A7"(dedc) | "D"[d6F6] :|
